app/img/ic_management.svg

<svg width="149" height="139" viewBox="0 0 149 139" fill="none" xmlns="http://www.w3.org/2000/svg">
    <g filter="url(#filter0_d_762:5500)">
        <rect x="30" y="26" width="89" height="79" rx="20" fill="url(#paint0_linear_762:5500)"/>
        <rect x="30.5" y="26.5" width="88" height="78" rx="19.5" stroke="#FAFAFA" stroke-opacity="0.1"/>
    </g>
    <path d="M62.5 87C63.9834 87 65.4334 86.5601 66.6668 85.736C67.9001 84.9119 68.8614 83.7406 69.4291 82.3701C69.9967 80.9997 70.1453 79.4917 69.8559 78.0368C69.5665 76.582 68.8522 75.2456 67.8033 74.1967C66.7544 73.1478 65.418 72.4335 63.9632 72.1441C62.5083 71.8547 61.0003 72.0033 59.6299 72.5709C58.2594 73.1386 57.0881 74.0999 56.264 75.3332C55.4399 76.5666 55 78.0166 55 79.5C55 81.4891 55.7902 83.3968 57.1967 84.8033C58.6032 86.2098 60.5109 87 62.5 87ZM62.5 76.0909C63.1743 76.0909 63.8334 76.2909 64.394 76.6654C64.9546 77.04 65.3916 77.5725 65.6496 78.1954C65.9076 78.8183 65.9751 79.5038 65.8436 80.1651C65.712 80.8264 65.3874 81.4338 64.9106 81.9106C64.4338 82.3874 63.8264 82.712 63.1651 82.8436C62.5038 82.9751 61.8183 82.9076 61.1954 82.6496C60.5725 82.3916 60.04 81.9546 59.6654 81.394C59.2908 80.8334 59.0909 80.1743 59.0909 79.5C59.0909 78.5959 59.4501 77.7287 60.0894 77.0894C60.7287 76.4501 61.5959 76.0909 62.5 76.0909Z"
          fill="white"/>
    <path d="M94 54.5C94 53.0166 93.5601 51.5666 92.736 50.3332C91.9119 49.0999 90.7406 48.1386 89.3701 47.5709C87.9997 47.0032 86.4917 46.8547 85.0368 47.1441C83.582 47.4335 82.2456 48.1478 81.1967 49.1967C80.1478 50.2456 79.4335 51.582 79.1441 53.0368C78.8547 54.4917 79.0033 55.9997 79.5709 57.3701C80.1386 58.7406 81.0999 59.9119 82.3332 60.736C83.5666 61.5601 85.0166 62 86.5 62C88.4891 62 90.3968 61.2098 91.8033 59.8033C93.2098 58.3968 94 56.4891 94 54.5ZM83.0909 54.5C83.0909 53.8257 83.2909 53.1666 83.6654 52.606C84.04 52.0454 84.5725 51.6084 85.1954 51.3504C85.8183 51.0924 86.5038 51.0249 87.1651 51.1564C87.8264 51.288 88.4338 51.6126 88.9106 52.0894C89.3874 52.5662 89.712 53.1736 89.8436 53.8349C89.9751 54.4962 89.9076 55.1817 89.6496 55.8046C89.3916 56.4275 88.9546 56.96 88.394 57.3346C87.8334 57.7092 87.1743 57.9091 86.5 57.9091C85.5959 57.9091 84.7287 57.5499 84.0894 56.9106C83.4501 56.2713 83.0909 55.4041 83.0909 54.5Z"
          fill="white"/>
    <path d="M74.5944 80.4658L81.3357 87.2812C81.7271 87.6769 82.3662 87.6769 82.7576 87.2812L84.2236 85.7991C84.6089 85.4095 84.6089 84.7823 84.2236 84.3927L80.9356 81.0685H87.5478C88.5264 81.0685 89.4955 80.8736 90.3996 80.495C91.3038 80.1163 92.1253 79.5614 92.8173 78.8618C93.5093 78.1621 94.0582 77.3316 94.4327 76.4175C94.8072 75.5034 95 74.5237 95 73.5342V67C95 66.4477 94.5523 66 94 66H91.9351C91.3829 66 90.9351 66.4477 90.9351 67V73.5342C90.9351 74.4425 90.5783 75.3136 89.943 75.9558C89.3077 76.5981 88.4461 76.9589 87.5478 76.9589H80.9356L84.2236 73.6347C84.6089 73.2451 84.6089 72.6179 84.2236 72.2283L82.7576 70.7462C82.3662 70.3505 81.7271 70.3505 81.3357 70.7462L74.5944 77.5616C74.2138 77.9469 74 78.4692 74 79.0137C74 79.5582 74.2138 80.0805 74.5944 80.4658Z"
          fill="#022AF0"/>
    <path d="M54 60.4658V67C54 67.5523 54.4477 68 55 68H57.0649C57.6171 68 58.0649 67.5523 58.0649 67V60.4658C58.0649 59.5575 58.4217 58.6864 59.057 58.0442C59.6923 57.4019 60.5539 57.0411 61.4522 57.0411H68.0644L64.7764 60.3653C64.3911 60.7549 64.3911 61.3821 64.7764 61.7717L66.2424 63.2538C66.6338 63.6495 67.2729 63.6495 67.6643 63.2538L74.4056 56.4384C74.7862 56.0531 75 55.5308 75 54.9863C75 54.4418 74.7862 53.9195 74.4056 53.5342L67.6643 46.7188C67.2729 46.3231 66.6338 46.3231 66.2424 46.7188L64.7764 48.2009C64.3911 48.5905 64.3911 49.2177 64.7764 49.6073L68.0644 52.9315H61.4522C59.4758 52.9315 57.5803 53.7253 56.1827 55.1382C54.7851 56.5512 54 58.4675 54 60.4658Z"
          fill="#022AF0"/>
    <defs>
        <filter id="filter0_d_762:5500" x="0" y="0" width="149" height="139" filterUnits="userSpaceOnUse"
                color-interpolation-filters="sRGB">
            <feFlood flood-opacity="0" result="BackgroundImageFix"/>
            <feColorMatrix in="SourceAlpha" type="matrix" values="0 0 0 0 0 0 0 0 0 0 0 0 0 0 0 0 0 0 127 0"
                           result="hardAlpha"/>
            <feOffset dy="4"/>
            <feGaussianBlur stdDeviation="15"/>
            <feComposite in2="hardAlpha" operator="out"/>
            <feColorMatrix type="matrix" values="0 0 0 0 0.5 0 0 0 0 1 0 0 0 0 0.625065 0 0 0 0.25 0"/>
            <feBlend mode="normal" in2="BackgroundImageFix" result="effect1_dropShadow_762:5500"/>
            <feBlend mode="normal" in="SourceGraphic" in2="effect1_dropShadow_762:5500" result="shape"/>
        </filter>
        <linearGradient id="paint0_linear_762:5500" x1="30" y1="13" x2="105" y2="99" gradientUnits="userSpaceOnUse">
            <stop stop-color="#5DD4E8"/>
            <stop offset="1" stop-color="#76F3B5"/>
        </linearGradient>
    </defs>
</svg>

<svg width="149" height="139" fill="none" xmlns="http://www.w3.org/2000/svg"><g filter="url(#a)"><rect x="30" y="26" width="89" height="79" rx="20" fill="url(#b)"/><rect x="30.5" y="26.5" width="88" height="78" rx="19.5" stroke="#FAFAFA" stroke-opacity=".1"/></g><path d="M62.5 87a7.5 7.5 0 1 0 0-15 7.5 7.5 0 0 0 0 15Zm0-10.91a3.41 3.41 0 1 1 0 6.82 3.41 3.41 0 0 1 0-6.82ZM94 54.5a7.5 7.5 0 1 0-15 0 7.5 7.5 0 0 0 15 0Zm-10.91 0a3.41 3.41 0 1 1 6.82 0 3.41 3.41 0 0 1-6.82 0Z" fill="#fff"/><path d="m74.594 80.466 6.742 6.815a1 1 0 0 0 1.422 0l1.466-1.482a1 1 0 0 0 0-1.406l-3.288-3.325h6.612c.978 0 1.948-.194 2.852-.573a7.448 7.448 0 0 0 2.417-1.633c.692-.7 1.241-1.53 1.616-2.444A7.607 7.607 0 0 0 95 73.534V67a1 1 0 0 0-1-1h-2.065a1 1 0 0 0-1 1v6.534c0 .908-.357 1.78-.992 2.422a3.369 3.369 0 0 1-2.395 1.003h-6.612l3.288-3.324a1 1 0 0 0 0-1.407l-1.466-1.482a1 1 0 0 0-1.422 0l-6.742 6.816c-.38.385-.594.907-.594 1.452 0 .544.214 1.067.594 1.452ZM54 60.466V67a1 1 0 0 0 1 1h2.065a1 1 0 0 0 1-1v-6.534c0-.909.357-1.78.992-2.422a3.369 3.369 0 0 1 2.395-1.003h6.612l-3.288 3.324a1 1 0 0 0 0 1.407l1.466 1.482a1 1 0 0 0 1.422 0l6.742-6.816c.38-.385.594-.907.594-1.452 0-.544-.214-1.066-.594-1.452l-6.742-6.815a1 1 0 0 0-1.422 0L64.776 48.2a1 1 0 0 0 0 1.406l3.288 3.325h-6.612a7.412 7.412 0 0 0-5.27 2.206A7.576 7.576 0 0 0 54 60.466Z" fill="#022AF0"/><defs><linearGradient id="b" x1="30" y1="13" x2="105" y2="99" gradientUnits="userSpaceOnUse"><stop stop-color="#5DD4E8"/><stop offset="1" stop-color="#76F3B5"/></linearGradient><filter id="a" x="0" y="0" width="149" height="139" filterUnits="userSpaceOnUse" color-interpolation-filters="sRGB"><feFlood flood-opacity="0" result="BackgroundImageFix"/><feColorMatrix in="SourceAlpha" values="0 0 0 0 0 0 0 0 0 0 0 0 0 0 0 0 0 0 127 0" result="hardAlpha"/><feOffset dy="4"/><feGaussianBlur stdDeviation="15"/><feComposite in2="hardAlpha" operator="out"/><feColorMatrix values="0 0 0 0 0.5 0 0 0 0 1 0 0 0 0 0.625065 0 0 0 0.25 0"/><feBlend in2="BackgroundImageFix" result="effect1_dropShadow_762:5500"/><feBlend in="SourceGraphic" in2="effect1_dropShadow_762:5500" result="shape"/></filter></defs></svg>
